app/images/icons/twitter-icon.svg

<svg fill="none" height="32" viewBox="0 0 32 32" width="32" xmlns="http://www.w3.org/2000/svg"><path d="m0 16c0-8.83656 7.16344-16 16-16 8.8366 0 16 7.16344 16 16 0 8.8366-7.1634 16-16 16-8.83656 0-16-7.1634-16-16zm15.5208-2.995.0336.5536-.5596-.0678c-2.0369-.2598-3.8164-1.1411-5.32724-2.6213l-.73865-.7344-.19026.5424c-.4029 1.2089-.14549 2.4857.69388 3.3444.44767.4745.34695.5423-.42528.2599-.2686-.0904-.50362-.1582-.52601-.1243-.07834.0791.19026 1.1072.4029 1.514.29099.5649.88414 1.1186 1.53326 1.4462l.5484.2599-.6491.0113c-.62676 0-.64914.0113-.58199.2486.22383.7344 1.10799 1.514 2.09289 1.853l.6938.2372-.6043.3616c-.8953.5197-1.94737.8135-2.99938.8361-.50363.0113-.91772.0565-.91772.0904 0 .113 1.36538.7457 2.16.9943 2.3838.7344 5.2153.418 7.3417-.8361 1.5109-.8926 3.0218-2.6665 3.7269-4.3839.3805-.9152.761-2.5874.761-3.3896 0-.5198.0336-.5876.6603-1.209.3693-.3616.7163-.757.7834-.87.1119-.2147.1007-.2147-.47-.0226-.9513.339-1.0856.2938-.6156-.2147.347-.3615.7611-1.0169.7611-1.20894 0-.03389-.1679.0226-.3582.12429-.2014.11295-.6491.28245-.9848.38415l-.6044.1921-.5484-.3729c-.3022-.20335-.7274-.42933-.9513-.49712-.5708-.15818-1.4437-.13558-1.9585.0452-1.399.50842-2.2831 1.81912-2.1824 3.25402z" fill="#117cb6"/></svg>

<svg width="32" height="32" viewBox="0 0 32 32" fill="none" xmlns="http://www.w3.org/2000/svg">
<path d="M0 16C0 7.16344 7.16344 0 16 0C24.8366 0 32 7.16344 32 16C32 24.8366 24.8366 32 16 32C7.16344 32 0 24.8366 0 16ZM15.5208 13.005L15.5544 13.5586L14.9948 13.4908C12.9579 13.231 11.1784 12.3497 9.66756 10.8695L8.92891 10.1351L8.73865 10.6775C8.33575 11.8864 8.59316 13.1632 9.43253 14.0219C9.8802 14.4964 9.77948 14.5642 9.00725 14.2818C8.73865 14.1914 8.50363 14.1236 8.48124 14.1575C8.4029 14.2366 8.6715 15.2647 8.88414 15.6715C9.17513 16.2364 9.76828 16.7901 10.4174 17.1177L10.9658 17.3776L10.3167 17.3889C9.68994 17.3889 9.66756 17.4002 9.73471 17.6375C9.95854 18.3719 10.8427 19.1515 11.8276 19.4905L12.5214 19.7277L11.9171 20.0893C11.0218 20.609 9.96973 20.9028 8.91772 20.9254C8.41409 20.9367 8 20.9819 8 21.0158C8 21.1288 9.36538 21.7615 10.16 22.0101C12.5438 22.7445 15.3753 22.4281 17.5017 21.174C19.0126 20.2814 20.5235 18.5075 21.2286 16.7901C21.6091 15.8749 21.9896 14.2027 21.9896 13.4005C21.9896 12.8807 22.0232 12.8129 22.6499 12.1915C23.0192 11.8299 23.3662 11.4345 23.4333 11.3215C23.5452 11.1068 23.534 11.1068 22.9633 11.2989C22.012 11.6379 21.8777 11.5927 22.3477 11.0842C22.6947 10.7227 23.1088 10.0673 23.1088 9.87526C23.1088 9.84137 22.9409 9.89786 22.7506 9.99955C22.5492 10.1125 22.1015 10.282 21.7658 10.3837L21.1614 10.5758L20.613 10.2029C20.3108 9.99955 19.8856 9.77357 19.6617 9.70578C19.0909 9.5476 18.218 9.5702 17.7032 9.75098C16.3042 10.2594 15.4201 11.5701 15.5208 13.005Z" fill="#117CB6"/>
</svg>
